svgs/sharp-light/barcode-scan.svg

<svg xmlns="http://www.w3.org/2000/svg" viewBox="0 0 640 512"><!--! Font Awesome Pro 6.6.0 by @fontawesome - https://fontawesome.com License - https://fontawesome.com/license (Commercial License) Copyright 2024 Fonticons, Inc. --><path d="M64 32l0 160 32 0L96 32 64 32zm0 288l0 160 32 0 0-160-32 0zm96 0l-32 0 0 160 32 0 0-160zM128 192l32 0 0-160-32 0 0 160zm64 288l32 0 0-160-32 0 0 160zm0-288l32 0 0-160-32 0 0 160zm96 288l32 0 0-160-32 0 0 160zm0-288l32 0 0-160-32 0 0 160zm64 288l32 0 0-160-32 0 0 160zm0-288l32 0 0-160-32 0 0 160zm96 288l32 0 0-160-32 0 0 160zm0-288l32 0 0-160-32 0 0 160zm96 288l32 0 0-160-32 0 0 160zm0-288l32 0 0-160-32 0 0 160zM0 240l0 32 640 0 0-32L0 240z"/></svg>

<svg xmlns="http://www.w3.org/2000/svg" viewBox="0 0 640 512"><!--! Font Awesome Pro 6.4.0 by @fontawesome - https://fontawesome.com License - https://fontawesome.com/license (Commercial License) Copyright 2023 Fonticons, Inc. --><path d="M64 32V192H96V32H64zm0 288V480H96V320H64zm96 0H128V480h32V320zM128 192h32V32H128V192zm64 288h32V320H192V480zm0-288h32V32H192V192zm96 288h32V320H288V480zm0-288h32V32H288V192zm64 288h32V320H352V480zm0-288h32V32H352V192zm96 288h32V320H448V480zm0-288h32V32H448V192zm96 288h32V320H544V480zm0-288h32V32H544V192zM0 240v32l640 0V240L0 240z"/></svg>
